src/catppuccin-macchiato-lavender-cursors/wait-10.svg

<?xml version="1.0" encoding="UTF-8" standalone="no"?>
<svg
   id="svg5327"
   width="32"
   height="32"
   version="1.1"
   sodipodi:docname="wait-10.svg"
   inkscape:version="1.1.2 (0a00cf5339, 2022-02-04)"
   xmlns:inkscape="http://www.inkscape.org/namespaces/inkscape"
   xmlns:sodipodi="http://sodipodi.sourceforge.net/DTD/sodipodi-0.dtd"
   xmlns:xlink="http://www.w3.org/1999/xlink"
   xmlns="http://www.w3.org/2000/svg"
   xmlns:svg="http://www.w3.org/2000/svg">
  <sodipodi:namedview
     id="namedview41075"
     pagecolor="#ffffff"
     bordercolor="#666666"
     borderopacity="1.0"
     inkscape:pageshadow="2"
     inkscape:pageopacity="0.0"
     inkscape:pagecheckerboard="0"
     showgrid="false"
     inkscape:zoom="25.96875"
     inkscape:cx="16"
     inkscape:cy="16.019254"
     inkscape:window-width="1896"
     inkscape:window-height="1020"
     inkscape:window-x="9"
     inkscape:window-y="45"
     inkscape:window-maximized="1"
     inkscape:current-layer="svg5327" />
  <defs
     id="defs5329">
    <filter
       id="filter837"
       style="color-interpolation-filters:sRGB"
       width="1.12"
       height="1.12"
       x="-.06"
       y="-.06">
      <feGaussianBlur
         id="feGaussianBlur839"
         stdDeviation=".55" />
    </filter>
    <filter
       id="filter847"
       style="color-interpolation-filters:sRGB"
       width="1.106"
       height="1.138"
       x="-.05"
       y="-.07">
      <feGaussianBlur
         id="feGaussianBlur849"
         stdDeviation=".354" />
    </filter>
    <linearGradient
       id="linearGradient832"
       x1="21"
       x2="25"
       y1="16"
       y2="28"
       gradientTransform="matrix(1.5384616,0,0,1.5384616,-18.615384,-18.615386)"
       gradientUnits="userSpaceOnUse"
       xlink:href="#linearGradient830" />
    <linearGradient
       id="linearGradient830">
      <stop
         id="stop826"
         style="stop-color:#ffffff;stop-opacity:1"
         offset="0" />
      <stop
         id="stop828"
         style="stop-color:#ffffff;stop-opacity:0"
         offset="1" />
    </linearGradient>
    <filter
       id="filter831"
       style="color-interpolation-filters:sRGB"
       width="1.1272932"
       height="1.165324"
       x="-0.063646604"
       y="-0.082662003">
      <feGaussianBlur
         id="feGaussianBlur833"
         stdDeviation=".424" />
    </filter>
    <filter
       id="filter835"
       style="color-interpolation-filters:sRGB"
       width="1.144"
       height="1.144"
       x="-0.072000003"
       y="-0.072000003">
      <feGaussianBlur
         id="feGaussianBlur837"
         stdDeviation=".66" />
    </filter>
  </defs>
  <circle
     id="circle819"
     style="opacity:0.2;fill:#000000;fill-opacity:1;stroke:none;stroke-width:2.19999981;stroke-linecap:round;stroke-linejoin:round;stroke-miterlimit:4;stroke-dasharray:none;stroke-opacity:1;filter:url(#filter835)"
     cx="16.5"
     cy="16.5"
     r="11" />
  <circle
     id="path818"
     style="opacity:1;fill:#24273A;fill-opacity:1;stroke:none;stroke-width:2.19999981;stroke-linecap:round;stroke-linejoin:round;stroke-miterlimit:4;stroke-dasharray:none;stroke-opacity:1"
     cx="16"
     cy="16"
     r="11" />
  <circle
     id="circle824"
     style="opacity:1;fill:#B7BDF8;fill-opacity:1;stroke:none;stroke-width:1.99999988;stroke-linecap:round;stroke-linejoin:round;stroke-miterlimit:4;stroke-dasharray:none;stroke-opacity:1"
     cx="16"
     cy="16"
     r="10" />
  <path
     id="path824"
     style="opacity:0.2;fill:#B7BDF8;fill-opacity:1;stroke:none;stroke-width:3.63636;stroke-linecap:round;stroke-linejoin:round;stroke-miterlimit:4;stroke-dasharray:none;stroke-opacity:1"
     d="M 26,16 A 10,10 0 0 1 16,26 10,10 0 0 1 6,16 10,10 0 0 1 16,5.9999997 10,10 0 0 1 26,16 Z" />
  <path
     id="path821"
     style="color:#000000;font-style:normal;font-variant:normal;font-weight:normal;font-stretch:normal;font-size:medium;line-height:normal;font-family:sans-serif;font-variant-ligatures:normal;font-variant-position:normal;font-variant-caps:normal;font-variant-numeric:normal;font-variant-alternates:normal;font-feature-settings:normal;text-indent:0;text-align:start;text-decoration:none;text-decoration-line:none;text-decoration-style:solid;text-decoration-color:#000000;letter-spacing:normal;word-spacing:normal;text-transform:none;writing-mode:lr-tb;direction:ltr;text-orientation:mixed;dominant-baseline:auto;baseline-shift:baseline;text-anchor:start;white-space:normal;shape-padding:0;clip-rule:nonzero;display:inline;overflow:visible;visibility:visible;opacity:0.2;isolation:auto;mix-blend-mode:normal;color-interpolation:sRGB;color-interpolation-filters:linearRGB;solid-color:#000000;solid-opacity:1;vector-effect:none;fill:#000000;fill-opacity:1;fill-rule:nonzero;stroke:none;stroke-width:1.0006907;stroke-linecap:round;stroke-linejoin:round;stroke-miterlimit:4;stroke-dasharray:none;stroke-dashoffset:0;stroke-opacity:1;color-rendering:auto;image-rendering:auto;shape-rendering:auto;text-rendering:auto;enable-background:accumulate;filter:url(#filter831)"
     d="m 11.568549,10.351678 a 0.49889536,0.50328986 45 0 0 -0.34375,0.128907 c -1.7303295,1.537859 -2.71876,3.742031 -2.7167961,6.046875 0.002,2.304843 0.9955933,4.489598 2.7285151,5.99414 a 0.49890424,0.50329883 45 0 0 0.681641,-0.02539 0.49890424,0.50329883 45 0 0 -0.02149,-0.734375 c -1.516702,-1.316827 -2.3889019,-3.224917 -2.3906192,-5.242188 -0.0017,-2.017275 0.8683712,-3.946983 2.3828122,-5.292969 a 0.49889536,0.50328986 45 0 0 -0.320313,-0.875 z m 9.890625,0.01172 a 0.49792399,0.50330224 45 0 0 -0.341796,0.886719 c 1.513926,1.314041 2.381133,3.219076 2.380859,5.234375 -2.73e-4,2.015296 -0.868526,3.942901 -2.382813,5.289063 a 0.49791549,0.50329364 45 1 0 0.660157,0.74414 c 0.216265,-0.192263 0.420597,-0.393551 0.613281,-0.605469 1.348824,-1.483388 2.107149,-3.420783 2.107422,-5.435547 3.13e-4,-2.302583 -0.989007,-4.484966 -2.71875,-5.986328 a 0.49792399,0.50330224 45 0 0 -0.31836,-0.126953 z m -7.751953,2.119141 a 0.49606359,0.49808729 45 0 0 -0.341797,0.126953 c -1.187516,0.948858 -1.881113,2.385341 -1.878906,3.902344 0.0019,1.327378 0.538043,2.58839 1.46875,3.509765 0.132958,0.131624 0.273093,0.256085 0.421875,0.373047 a 0.49593692,0.4979601 45 1 0 0.615235,-0.78125 c -0.952736,-0.748987 -1.508001,-1.895094 -1.509766,-3.109375 -0.0018,-1.214281 0.549464,-2.361587 1.5,-3.121094 a 0.49606359,0.49808729 45 0 0 -0.275391,-0.90039 z m 5.59961,0.0039 a 0.49593692,0.49994779 45 0 0 -0.298829,0.902344 c 0.953144,0.748582 1.508466,1.894626 1.507813,3.111328 -6.52e-4,1.216701 -0.555814,2.367944 -1.509766,3.130859 a 0.49606359,0.50007549 45 0 0 -0.03906,0.746094 0.49606359,0.50007549 45 0 0 0.65625,0.02734 c 1.191776,-0.953119 1.889807,-2.394034 1.890625,-3.914063 8.13e-4,-1.520027 -0.695961,-2.951511 -1.886719,-3.886718 a 0.49593692,0.49994779 45 0 0 -0.320312,-0.117188 z" />
  <path
     id="path847"
     style="color:#000000;font-style:normal;font-variant:normal;font-weight:normal;font-stretch:normal;font-size:medium;line-height:normal;font-family:sans-serif;font-variant-ligatures:normal;font-variant-position:normal;font-variant-caps:normal;font-variant-numeric:normal;font-variant-alternates:normal;font-feature-settings:normal;text-indent:0;text-align:start;text-decoration:none;text-decoration-line:none;text-decoration-style:solid;text-decoration-color:#000000;letter-spacing:normal;word-spacing:normal;text-transform:none;writing-mode:lr-tb;direction:ltr;text-orientation:mixed;dominant-baseline:auto;baseline-shift:baseline;text-anchor:start;white-space:normal;shape-padding:0;clip-rule:nonzero;display:inline;overflow:visible;visibility:visible;opacity:1;isolation:auto;mix-blend-mode:normal;color-interpolation:sRGB;color-interpolation-filters:linearRGB;solid-color:#000000;solid-opacity:1;vector-effect:none;fill:#24273A;fill-opacity:1;fill-rule:nonzero;stroke:none;stroke-width:1.0006907;stroke-linecap:round;stroke-linejoin:round;stroke-miterlimit:4;stroke-dasharray:none;stroke-dashoffset:0;stroke-opacity:1;color-rendering:auto;image-rendering:auto;shape-rendering:auto;text-rendering:auto;enable-background:accumulate"
     d="M 11.068359 9.8515625 A 0.49889536 0.50328986 45 0 0 10.724609 9.9804688 C 8.9942791 11.518328 8.0058486 13.7225 8.0078125 16.027344 C 8.0098125 18.332187 9.0034058 20.516942 10.736328 22.021484 A 0.49890424 0.50329883 45 0 0 11.417969 21.996094 A 0.49890424 0.50329883 45 0 0 11.396484 21.261719 C 9.8797764 19.944892 9.0075767 18.036802 9.0058594 16.019531 C 9.0041602 14.002256 9.8742304 12.072548 11.388672 10.726562 A 0.49889536 0.50328986 45 0 0 11.068359 9.8515625 z M 20.958984 9.8632812 A 0.49792399 0.50330224 45 0 0 20.617188 10.75 C 22.131114 12.064041 22.998321 13.969076 22.998047 15.984375 C 22.997774 17.999671 22.129521 19.927276 20.615234 21.273438 A 0.49791549 0.50329364 45 1 0 21.275391 22.017578 C 21.491656 21.825315 21.695988 21.624027 21.888672 21.412109 C 23.237496 19.928721 23.995821 17.991326 23.996094 15.976562 C 23.996407 13.673979 23.007087 11.491596 21.277344 9.9902344 A 0.49792399 0.50330224 45 0 0 20.958984 9.8632812 z M 13.207031 11.982422 A 0.49606359 0.49808729 45 0 0 12.865234 12.109375 C 11.677718 13.058233 10.984121 14.494716 10.986328 16.011719 C 10.988228 17.339097 11.524371 18.600109 12.455078 19.521484 C 12.588036 19.653108 12.728171 19.777569 12.876953 19.894531 A 0.49593692 0.4979601 45 1 0 13.492188 19.113281 C 12.539452 18.364294 11.984187 17.218187 11.982422 16.003906 C 11.980622 14.789625 12.531886 13.642319 13.482422 12.882812 A 0.49606359 0.49808729 45 0 0 13.207031 11.982422 z M 18.806641 11.986328 A 0.49593692 0.49994779 45 0 0 18.507812 12.888672 C 19.460956 13.637254 20.016278 14.783298 20.015625 16 C 20.014973 17.216701 19.459811 18.367944 18.505859 19.130859 A 0.49606359 0.50007549 45 0 0 18.466797 19.876953 A 0.49606359 0.50007549 45 0 0 19.123047 19.904297 C 20.314823 18.951178 21.012854 17.510263 21.013672 15.990234 C 21.014485 14.470207 20.317711 13.038723 19.126953 12.103516 A 0.49593692 0.49994779 45 0 0 18.806641 11.986328 z" />
</svg>

<svg xmlns="http://www.w3.org/2000/svg" width="32" height="32">
    <defs>
        <filter id="b" width="1.127" height="1.165" x="-.064" y="-.083" style="color-interpolation-filters:sRGB">
            <feGaussianBlur stdDeviation=".424"/>
        </filter>
        <filter id="a" width="1.144" height="1.144" x="-.072" y="-.072" style="color-interpolation-filters:sRGB">
            <feGaussianBlur stdDeviation=".66"/>
        </filter>
    </defs>
    <circle cx="16.5" cy="16.5" r="11" style="opacity:.2;fill:#000;fill-opacity:1;stroke:none;stroke-width:2.19999981;stroke-linecap:round;stroke-linejoin:round;stroke-miterlimit:4;stroke-dasharray:none;stroke-opacity:1;filter:url(#a)"/>
    <circle cx="16" cy="16" r="11" style="opacity:1;fill:#24273a;fill-opacity:1;stroke:none;stroke-width:2.19999981;stroke-linecap:round;stroke-linejoin:round;stroke-miterlimit:4;stroke-dasharray:none;stroke-opacity:1"/>
    <circle cx="16" cy="16" r="10" style="opacity:1;fill:#b7bdf8;fill-opacity:1;stroke:none;stroke-width:1.99999988;stroke-linecap:round;stroke-linejoin:round;stroke-miterlimit:4;stroke-dasharray:none;stroke-opacity:1"/>
    <path d="M26 16a10 10 0 0 1-10 10A10 10 0 0 1 6 16 10 10 0 0 1 16 6a10 10 0 0 1 10 10" style="opacity:.2;fill:#b7bdf8;fill-opacity:1;stroke:none;stroke-width:3.63636;stroke-linecap:round;stroke-linejoin:round;stroke-miterlimit:4;stroke-dasharray:none;stroke-opacity:1"/>
    <path d="M11.569 10.352a.499.503 45 0 0-.344.129 8.1 8.1 0 0 0-2.717 6.046 7.94 7.94 0 0 0 2.729 5.995.499.503 45 0 0 .681-.026.499.503 45 0 0-.021-.734 6.94 6.94 0 0 1-2.391-5.242 7.08 7.08 0 0 1 2.383-5.293.499.503 45 0 0-.32-.875m9.89.011a.498.503 45 0 0-.342.887 6.92 6.92 0 0 1 2.381 5.234 7.1 7.1 0 0 1-2.383 5.29.498.503 45 1 0 .66.744q.325-.289.614-.606a8.1 8.1 0 0 0 2.107-5.435 7.92 7.92 0 0 0-2.718-5.987.498.503 45 0 0-.319-.127m-7.752 2.12a.496.498 45 0 0-.342.126 4.99 4.99 0 0 0-1.878 3.903 4.95 4.95 0 0 0 1.89 3.883.496.498 45 1 0 .615-.782 3.96 3.96 0 0 1-1.51-3.109 3.99 3.99 0 0 1 1.5-3.121.496.498 45 0 0-.275-.9m5.6.003a.496.5 45 0 0-.299.903 3.95 3.95 0 0 1 1.508 3.111 4.01 4.01 0 0 1-1.51 3.131.496.5 45 0 0-.039.746.496.5 45 0 0 .656.027 5.02 5.02 0 0 0 1.89-3.914 4.93 4.93 0 0 0-1.886-3.886.496.5 45 0 0-.32-.118" style="color:#000;font-style:normal;font-variant:normal;font-weight:400;font-stretch:normal;font-size:medium;line-height:normal;font-family:sans-serif;font-variant-ligatures:normal;font-variant-position:normal;font-variant-caps:normal;font-variant-numeric:normal;font-variant-alternates:normal;font-feature-settings:normal;text-indent:0;text-align:start;text-decoration:none;text-decoration-line:none;text-decoration-style:solid;text-decoration-color:#000;letter-spacing:normal;word-spacing:normal;text-transform:none;writing-mode:lr-tb;direction:ltr;text-orientation:mixed;dominant-baseline:auto;baseline-shift:baseline;text-anchor:start;white-space:normal;shape-padding:0;clip-rule:nonzero;display:inline;overflow:visible;visibility:visible;opacity:.2;isolation:auto;mix-blend-mode:normal;color-interpolation:sRGB;color-interpolation-filters:linearRGB;solid-color:#000;solid-opacity:1;vector-effect:none;fill:#000;fill-opacity:1;fill-rule:nonzero;stroke:none;stroke-width:1.0006907;stroke-linecap:round;stroke-linejoin:round;stroke-miterlimit:4;stroke-dasharray:none;stroke-dashoffset:0;stroke-opacity:1;color-rendering:auto;image-rendering:auto;shape-rendering:auto;text-rendering:auto;enable-background:accumulate;filter:url(#b)"/>
    <path d="M11.068 9.852a.499.503 45 0 0-.343.128 8.1 8.1 0 0 0-2.717 6.047 7.94 7.94 0 0 0 2.728 5.994.499.503 45 0 0 .682-.025.499.503 45 0 0-.022-.734 6.94 6.94 0 0 1-2.39-5.242 7.08 7.08 0 0 1 2.383-5.293.499.503 45 0 0-.32-.875m9.891.011a.498.503 45 0 0-.342.887 6.92 6.92 0 0 1 2.381 5.234 7.1 7.1 0 0 1-2.383 5.29.498.503 45 1 0 .66.744q.325-.289.614-.606a8.1 8.1 0 0 0 2.107-5.435 7.92 7.92 0 0 0-2.719-5.987.498.503 45 0 0-.318-.127m-7.752 2.12a.496.498 45 0 0-.342.126 4.99 4.99 0 0 0-1.879 3.903 4.95 4.95 0 0 0 1.891 3.883.496.498 45 1 0 .615-.782 3.96 3.96 0 0 1-1.51-3.11 3.99 3.99 0 0 1 1.5-3.12.496.498 45 0 0-.275-.9m5.6.003a.496.5 45 0 0-.3.903A3.95 3.95 0 0 1 20.017 16a4.01 4.01 0 0 1-1.51 3.13.496.5 45 0 0-.04.747.496.5 45 0 0 .657.027 5.02 5.02 0 0 0 1.89-3.914 4.93 4.93 0 0 0-1.886-3.886.496.5 45 0 0-.32-.118" style="color:#000;font-style:normal;font-variant:normal;font-weight:400;font-stretch:normal;font-size:medium;line-height:normal;font-family:sans-serif;font-variant-ligatures:normal;font-variant-position:normal;font-variant-caps:normal;font-variant-numeric:normal;font-variant-alternates:normal;font-feature-settings:normal;text-indent:0;text-align:start;text-decoration:none;text-decoration-line:none;text-decoration-style:solid;text-decoration-color:#000;letter-spacing:normal;word-spacing:normal;text-transform:none;writing-mode:lr-tb;direction:ltr;text-orientation:mixed;dominant-baseline:auto;baseline-shift:baseline;text-anchor:start;white-space:normal;shape-padding:0;clip-rule:nonzero;display:inline;overflow:visible;visibility:visible;opacity:1;isolation:auto;mix-blend-mode:normal;color-interpolation:sRGB;color-interpolation-filters:linearRGB;solid-color:#000;solid-opacity:1;vector-effect:none;fill:#24273a;fill-opacity:1;fill-rule:nonzero;stroke:none;stroke-width:1.0006907;stroke-linecap:round;stroke-linejoin:round;stroke-miterlimit:4;stroke-dasharray:none;stroke-dashoffset:0;stroke-opacity:1;color-rendering:auto;image-rendering:auto;shape-rendering:auto;text-rendering:auto;enable-background:accumulate"/>
</svg>
